; This file was generated with "Universal Gcode Sender 2.1.6"
;
; Tool: 3.0mm
; Depth per pass: 1.0mm
; Feed speed: 1000mm/min
; Plunge speed: 400mm/min
; Safe height: 5.0mm
; Tool step over: 1.0mm
; Spindle speed: 0rpm

G21 ; millimeters
G90 ; absolute coordinate
G17 ; XY plane
G94 ; units per minute feed rate mode
M3 S0 ; Turning on spindle

; Ellipse - On path (1/1)
G0 Z5
G0 X0Y-25
G0 Z0
G1 F400 X0Y-25Z-0
G1 F1000 X0Y-25Z-0
G1 X-2.556Y-24.871Z-0
G1 X-5.038Y-24.492Z-0
G1 X-7.434Y-23.876Z-0
G1 X-9.731Y-23.035Z-0
G1 X-11.916Y-21.983Z-0
G1 X-13.978Y-20.73Z-0
G1 X-15.902Y-19.291Z-0
G1 X-17.678Y-17.678Z-0
G1 X-19.291Y-15.902Z-0
G1 X-20.73Y-13.978Z-0
G1 X-21.983Y-11.916Z-0
G1 X-23.035Y-9.731Z-0
G1 X-23.876Y-7.434Z-0
G1 X-24.492Y-5.038Z-0
G1 X-24.871Y-2.556Z-0
G1 X-25Y0Z-0
G1 X-24.871Y2.556Z-0
G1 X-24.492Y5.038Z-0
G1 X-23.876Y7.434Z-0
G1 X-23.035Y9.731Z-0
G1 X-21.983Y11.916Z-0
G1 X-20.73Y13.978Z-0
G1 X-19.291Y15.902Z-0
G1 X-17.678Y17.678Z-0
G1 X-15.902Y19.291Z-0
G1 X-13.978Y20.73Z-0
G1 X-11.916Y21.983Z-0
G1 X-9.731Y23.035Z-0
G1 X-7.434Y23.876Z-0
G1 X-5.038Y24.492Z-0
G1 X-2.556Y24.871Z-0
G1 X0Y25Z-0
G1 X2.556Y24.871Z-0
G1 X5.038Y24.492Z-0
G1 X7.434Y23.876Z-0
G1 X9.731Y23.035Z-0
G1 X11.916Y21.983Z-0
G1 X13.978Y20.73Z-0
G1 X15.902Y19.291Z-0
G1 X17.678Y17.678Z-0
G1 X19.291Y15.902Z-0
G1 X20.73Y13.978Z-0
G1 X21.983Y11.916Z-0
G1 X23.035Y9.731Z-0
G1 X23.876Y7.434Z-0
G1 X24.492Y5.038Z-0
G1 X24.871Y2.556Z-0
G1 X25Y0Z-0
G1 X24.871Y-2.556Z-0
G1 X24.492Y-5.038Z-0
G1 X23.876Y-7.434Z-0
G1 X23.035Y-9.731Z-0
G1 X21.983Y-11.916Z-0
G1 X20.73Y-13.978Z-0
G1 X19.291Y-15.902Z-0
G1 X17.678Y-17.678Z-0
G1 X15.902Y-19.291Z-0
G1 X13.978Y-20.73Z-0
G1 X11.916Y-21.983Z-0
G1 X9.731Y-23.035Z-0
G1 X7.434Y-23.876Z-0
G1 X5.038Y-24.492Z-0
G1 X2.556Y-24.871Z-0
G1 X0Y-25Z-0
G0 Z5

; Turning off spindle
M5
