; This file was generated with "Universal Gcode Sender 2.1.6"
;
; Tool: 3.0mm
; Depth per pass: 1.0mm
; Feed speed: 1000mm/min
; Plunge speed: 400mm/min
; Safe height: 5.0mm
; Tool step over: 1.0mm
; Spindle speed: 0rpm

G21 ; millimeters
G90 ; absolute coordinate
G17 ; XY plane
G94 ; units per minute feed rate mode
M3 S0 ; Turning on spindle

; Ellipse - Pocket (1/1)
G0 Z5
G0 X-0Y-23.498
G0 Z0
G1 F400 X-0Y-23.498Z-0
G1 F1000 X-0Y-23.498Z-0
G1 X-2.405Y-23.377Z-0
G1 X-4.738Y-23.021Z-0
G1 X-6.989Y-22.442Z-0
G1 X-9.146Y-21.652Z-0
G1 X-11.2Y-20.663Z-0
G1 X-13.137Y-19.486Z-0
G1 X-14.947Y-18.133Z-0
G1 X-16.616Y-16.616Z-0
G1 X-18.133Y-14.947Z-0
G1 X-19.486Y-13.137Z-0
G1 X-20.663Y-11.2Z-0
G1 X-21.652Y-9.146Z-0
G1 X-22.442Y-6.989Z-0
G1 X-23.021Y-4.738Z-0
G1 X-23.377Y-2.405Z-0
G1 X-23.498Y-0Z-0
G1 X-23.377Y2.405Z-0
G1 X-23.021Y4.738Z-0
G1 X-22.442Y6.989Z-0
G1 X-21.652Y9.146Z-0
G1 X-20.663Y11.2Z-0
G1 X-19.486Y13.137Z-0
G1 X-18.133Y14.947Z-0
G1 X-16.616Y16.616Z-0
G1 X-14.947Y18.133Z-0
G1 X-13.137Y19.486Z-0
G1 X-11.2Y20.663Z-0
G1 X-9.146Y21.652Z-0
G1 X-6.989Y22.442Z-0
G1 X-4.738Y23.021Z-0
G1 X-2.405Y23.377Z-0
G1 X-0Y23.498Z-0
G1 X2.405Y23.377Z-0
G1 X4.738Y23.021Z-0
G1 X6.989Y22.442Z-0
G1 X9.146Y21.652Z-0
G1 X11.2Y20.663Z-0
G1 X13.137Y19.486Z-0
G1 X14.947Y18.133Z-0
G1 X16.616Y16.616Z-0
G1 X18.133Y14.947Z-0
G1 X19.486Y13.137Z-0
G1 X20.663Y11.2Z-0
G1 X21.652Y9.146Z-0
G1 X22.442Y6.989Z-0
G1 X23.021Y4.738Z-0
G1 X23.377Y2.405Z-0
G1 X23.498Y-0Z-0
G1 X23.377Y-2.405Z-0
G1 X23.021Y-4.738Z-0
G1 X22.442Y-6.989Z-0
G1 X21.652Y-9.146Z-0
G1 X20.663Y-11.2Z-0
G1 X19.486Y-13.137Z-0
G1 X18.133Y-14.947Z-0
G1 X16.616Y-16.616Z-0
G1 X14.947Y-18.133Z-0
G1 X13.137Y-19.486Z-0
G1 X11.2Y-20.663Z-0
G1 X9.146Y-21.652Z-0
G1 X6.989Y-22.442Z-0
G1 X4.738Y-23.021Z-0
G1 X2.405Y-23.377Z-0
G1 X-0Y-23.498Z-0
G1 X-0Y-20.494Z-0
G1 X-2.102Y-20.388Z-0
G1 X-4.136Y-20.078Z-0
G1 X-7.977Y-18.885Z-0
G1 X-11.456Y-16.997Z-0
G1 X-14.492Y-14.492Z-0
G1 X-16.997Y-11.456Z-0
G1 X-18.885Y-7.977Z-0
G1 X-20.078Y-4.136Z-0
G1 X-20.388Y-2.102Z-0
G1 X-20.494Y-0Z-0
G1 X-20.388Y2.102Z-0
G1 X-20.078Y4.136Z-0
G1 X-18.885Y7.977Z-0
G1 X-16.997Y11.456Z-0
G1 X-14.492Y14.492Z-0
G1 X-11.456Y16.997Z-0
G1 X-7.977Y18.885Z-0
G1 X-4.136Y20.078Z-0
G1 X-2.102Y20.388Z-0
G1 X-0Y20.494Z-0
G1 X2.102Y20.388Z-0
G1 X4.136Y20.078Z-0
G1 X7.977Y18.885Z-0
G1 X11.456Y16.997Z-0
G1 X14.492Y14.492Z-0
G1 X16.997Y11.456Z-0
G1 X18.885Y7.977Z-0
G1 X20.078Y4.136Z-0
G1 X20.388Y2.102Z-0
G1 X20.494Y-0Z-0
G1 X20.388Y-2.102Z-0
G1 X20.078Y-4.136Z-0
G1 X18.885Y-7.977Z-0
G1 X16.997Y-11.456Z-0
G1 X14.492Y-14.492Z-0
G1 X11.456Y-16.997Z-0
G1 X7.977Y-18.885Z-0
G1 X4.136Y-20.078Z-0
G1 X2.102Y-20.388Z-0
G1 X-0Y-20.494Z-0
G1 X-0Y-17.49Z-0
G1 X-3.535Y-17.135Z-0
G1 X-6.808Y-16.119Z-0
G1 X-9.775Y-14.508Z-0
G1 X-12.368Y-12.368Z-0
G1 X-14.508Y-9.775Z-0
G1 X-16.119Y-6.808Z-0
G1 X-17.135Y-3.535Z-0
G1 X-17.49Y-0Z-0
G1 X-17.135Y3.535Z-0
G1 X-16.119Y6.808Z-0
G1 X-14.508Y9.775Z-0
G1 X-12.368Y12.368Z-0
G1 X-9.775Y14.508Z-0
G1 X-6.808Y16.119Z-0
G1 X-3.535Y17.135Z-0
G1 X-0Y17.49Z-0
G1 X3.535Y17.135Z-0
G1 X6.808Y16.119Z-0
G1 X9.775Y14.508Z-0
G1 X12.368Y12.368Z-0
G1 X14.508Y9.775Z-0
G1 X16.119Y6.808Z-0
G1 X17.135Y3.535Z-0
G1 X17.49Y-0Z-0
G1 X17.135Y-3.535Z-0
G1 X16.119Y-6.808Z-0
G1 X14.508Y-9.775Z-0
G1 X12.368Y-12.368Z-0
G1 X9.775Y-14.508Z-0
G1 X6.808Y-16.119Z-0
G1 X3.535Y-17.135Z-0
G1 X-0Y-17.49Z-0
G1 X-0Y-14.487Z-0
G1 X-2.934Y-14.192Z-0
G1 X-5.638Y-13.352Z-0
G1 X-8.094Y-12.019Z-0
G1 X-10.245Y-10.245Z-0
G1 X-12.019Y-8.094Z-0
G1 X-13.352Y-5.638Z-0
G1 X-14.192Y-2.934Z-0
G1 X-14.487Y-0Z-0
G1 X-14.192Y2.934Z-0
G1 X-13.352Y5.638Z-0
G1 X-12.019Y8.094Z-0
G1 X-10.245Y10.245Z-0
G1 X-8.094Y12.019Z-0
G1 X-5.638Y13.352Z-0
G1 X-2.934Y14.192Z-0
G1 X-0Y14.487Z-0
G1 X2.934Y14.192Z-0
G1 X5.638Y13.352Z-0
G1 X8.094Y12.019Z-0
G1 X10.245Y10.245Z-0
G1 X12.019Y8.094Z-0
G1 X13.352Y5.638Z-0
G1 X14.192Y2.934Z-0
G1 X14.487Y-0Z-0
G1 X14.192Y-2.934Z-0
G1 X13.352Y-5.638Z-0
G1 X12.019Y-8.094Z-0
G1 X10.245Y-10.245Z-0
G1 X8.094Y-12.019Z-0
G1 X5.638Y-13.352Z-0
G1 X2.934Y-14.192Z-0
G1 X-0Y-14.487Z-0
G1 X-0Y-11.483Z-0
G1 X-2.332Y-11.249Z-0
G1 X-4.469Y-10.586Z-0
G1 X-6.413Y-9.53Z-0
G1 X-8.121Y-8.121Z-0
G1 X-9.53Y-6.413Z-0
G1 X-10.586Y-4.469Z-0
G1 X-11.249Y-2.332Z-0
G1 X-11.483Y-0Z-0
G1 X-11.249Y2.332Z-0
G1 X-10.586Y4.469Z-0
G1 X-9.53Y6.413Z-0
G1 X-8.121Y8.121Z-0
G1 X-6.413Y9.53Z-0
G1 X-4.469Y10.586Z-0
G1 X-2.332Y11.249Z-0
G1 X-0Y11.483Z-0
G1 X2.332Y11.249Z-0
G1 X4.469Y10.586Z-0
G1 X6.413Y9.53Z-0
G1 X8.121Y8.121Z-0
G1 X9.53Y6.413Z-0
G1 X10.586Y4.469Z-0
G1 X11.249Y2.332Z-0
G1 X11.483Y-0Z-0
G1 X11.249Y-2.332Z-0
G1 X10.586Y-4.469Z-0
G1 X9.53Y-6.413Z-0
G1 X8.121Y-8.121Z-0
G1 X6.413Y-9.53Z-0
G1 X4.469Y-10.586Z-0
G1 X2.332Y-11.249Z-0
G1 X-0Y-11.483Z-0
G1 X-0Y-8.479Z-0
G1 X-1.731Y-8.306Z-0
G1 X-3.3Y-7.819Z-0
G1 X-4.732Y-7.041Z-0
G1 X-5.997Y-5.997Z-0
G1 X-7.041Y-4.732Z-0
G1 X-7.819Y-3.3Z-0
G1 X-8.306Y-1.731Z-0
G1 X-8.479Y-0Z-0
G1 X-8.306Y1.731Z-0
G1 X-7.819Y3.3Z-0
G1 X-7.041Y4.732Z-0
G1 X-5.997Y5.997Z-0
G1 X-4.732Y7.041Z-0
G1 X-3.3Y7.819Z-0
G1 X-1.731Y8.306Z-0
G1 X-0Y8.479Z-0
G1 X1.731Y8.306Z-0
G1 X3.3Y7.819Z-0
G1 X4.732Y7.041Z-0
G1 X5.997Y5.997Z-0
G1 X7.041Y4.732Z-0
G1 X7.819Y3.3Z-0
G1 X8.306Y1.731Z-0
G1 X8.479Y-0Z-0
G1 X8.306Y-1.731Z-0
G1 X7.819Y-3.3Z-0
G1 X7.041Y-4.732Z-0
G1 X5.997Y-5.997Z-0
G1 X4.732Y-7.041Z-0
G1 X3.3Y-7.819Z-0
G1 X1.731Y-8.306Z-0
G1 X-0Y-8.479Z-0
G1 X-0Y-5.475Z-0
G1 X-1.13Y-5.363Z-0
G1 X-2.13Y-5.052Z-0
G1 X-3.051Y-4.552Z-0
G1 X-3.873Y-3.873Z-0
G1 X-4.552Y-3.051Z-0
G1 X-5.052Y-2.13Z-0
G1 X-5.363Y-1.13Z-0
G1 X-5.475Y-0Z-0
G1 X-5.363Y1.13Z-0
G1 X-5.052Y2.13Z-0
G1 X-4.552Y3.051Z-0
G1 X-3.873Y3.873Z-0
G1 X-3.051Y4.552Z-0
G1 X-2.13Y5.052Z-0
G1 X-1.13Y5.363Z-0
G1 X-0Y5.475Z-0
G1 X1.13Y5.363Z-0
G1 X2.13Y5.052Z-0
G1 X3.051Y4.552Z-0
G1 X3.873Y3.873Z-0
G1 X4.552Y3.051Z-0
G1 X5.052Y2.13Z-0
G1 X5.363Y1.13Z-0
G1 X5.475Y-0Z-0
G1 X5.363Y-1.13Z-0
G1 X5.052Y-2.13Z-0
G1 X4.552Y-3.051Z-0
G1 X3.873Y-3.873Z-0
G1 X3.051Y-4.552Z-0
G1 X2.13Y-5.052Z-0
G1 X1.13Y-5.363Z-0
G1 X-0Y-5.475Z-0
G1 X-0Y-2.471Z-0
G1 X-0.961Y-2.286Z-0
G1 X-1.75Y-1.75Z-0
G1 X-2.286Y-0.961Z-0
G1 X-2.471Y-0Z-0
G1 X-2.286Y0.961Z-0
G1 X-1.75Y1.75Z-0
G1 X-0.961Y2.286Z-0
G1 X-0Y2.471Z-0
G1 X0.961Y2.286Z-0
G1 X1.75Y1.75Z-0
G1 X2.286Y0.961Z-0
G1 X2.471Y-0Z-0
G1 X2.286Y-0.961Z-0
G1 X1.75Y-1.75Z-0
G1 X0.961Y-2.286Z-0
G1 X-0Y-2.471Z-0
G0 Z5

; Turning off spindle
M5
